X: 1898
T: Around The World For Sport
R: reel
M: 4/4
K: Eminor
F|G2BG FAAF|EBBA BGEF|G2BG FABc|dBAG FDDF|
G2BG FAAF|EBBA BGEF|G2BG FABc|dBAG FD D||
g|f2e^c dBAF|EBBA BGEg|f2e^c dBAF|GBAG FDDg|
f2e^c dBAF|EBBA BGEg|f2e^c dBAF|GBAG FD D||

